app/assets/v2/images/kudos/cellarius/Circle.svg

<svg version="1.1" id="Layer_1" xmlns="http://www.w3.org/2000/svg" x="0" y="0" viewBox="0 0 110.9 128" xml:space="preserve"><style>.st3{fill:#df9079}</style><path fill="#766a68" d="M55.4 128l55.5-32V32L55.4 0 0 32v64z"/><path d="M101.4 37.4v53.1l-46 26.6-46-26.6V37.4l46-26.6 46 26.6zm9.5 58.6V32L55.4 0 0 32v64l55.4 32 55.5-32z" opacity=".38" fill="#df9079"/><path class="st3" d="M99.1 38.8v50.4l-43.7 25.2-43.6-25.2V38.8l43.7-25.2 43.6 25.2zm-43.7 78.3l46-26.6V37.4l-46-26.6-46 26.6v53.1l46 26.6z" opacity=".13"/><path d="M60.8 32.9l-1.8-.2h-1.2c-11 3.1-12.6 13.7-13.6 17-1.6 5.4-3.8 21 2.7 27.5 3.7 3.7 6.3 2.4 8 .6-.1 0-.1.1-.1.1s-3.6-4.4-3.6-13.8 5.1-14.2 5.1-14.2c.6-.8 2.6-2.6 6-1 4.3 2 7.5 11.1 5.7 24.6-1 7.9-3.3 16.7-14.9 21.9H60.4S77.7 94 77.7 62.8c-.1-24.4-11.8-29.1-16.9-29.9z" fill="#e6d9a5"/><path class="st3" d="M68 73.4c1.7-13.5-1.4-22.6-5.7-24.6-3.4-1.6-5.4.2-6 1 .1.1 4 3.8 4 14 0 9.6-4.7 13.5-5.4 14-1.6 1.8-4.3 3-8-.6-6.5-6.5-4.3-22-2.7-27.5 1-3.3 2.6-13.9 13.6-17l-7.7.2c-5.2.9-16.8 5.5-16.8 29.8 0 31.2 17.3 32.6 17.3 32.6H53.2C64.7 90.1 67 81.3 68 73.4z"/></svg>

<?xml version="1.0" encoding="utf-8"?>
<!-- Generator: Adobe Illustrator 22.1.0, SVG Export Plug-In . SVG Version: 6.00 Build 0)  -->
<svg version="1.1" id="Layer_1" xmlns="http://www.w3.org/2000/svg" xmlns:xlink="http://www.w3.org/1999/xlink" x="0px" y="0px"
	 viewBox="0 0 110.9 128" style="enable-background:new 0 0 110.9 128;" xml:space="preserve">
<style type="text/css">
	.st0{fill:#766A68;}
	.st1{opacity:0.38;fill:#DF9079;}
	.st2{opacity:0.13;}
	.st3{fill:#DF9079;}
	.st4{fill:#E6D9A5;}
	.st5{fill:none;stroke:#DF9079;stroke-width:3;stroke-miterlimit:10;}
</style>
<g>
	<polygon class="st0" points="55.4,128 110.9,96 110.9,32 55.4,0 55.4,0 0,32 0,96 	"/>
	<path class="st1" d="M101.4,37.4l0,53.1l-46,26.6l-46-26.6l0-53.1l46-26.6L101.4,37.4z M110.9,96l0-64L55.4,0l0,0L0,32l0,64
		l55.4,32L110.9,96z"/>
	<g class="st2">
		<path class="st3" d="M99.1,38.8l0,50.4l-43.7,25.2L11.8,89.2l0-50.4l43.7-25.2L99.1,38.8z M55.4,117.1l46-26.6l0-53.1l-46-26.6
			l-46,26.6l0,53.1L55.4,117.1z"/>
	</g>
	<path class="st4" d="M60.8,32.9L59,32.7c-0.4,0-0.6,0-0.6,0l-0.6,0c-11,3.1-12.6,13.7-13.6,17c-1.6,5.4-3.8,21,2.7,27.5
		c3.7,3.7,6.3,2.4,8,0.6c-0.1,0-0.1,0.1-0.1,0.1s-3.6-4.4-3.6-13.8s5.1-14.2,5.1-14.2s0,0,0,0c0.6-0.8,2.6-2.6,6-1
		c4.3,2,7.5,11.1,5.7,24.6c-1,7.9-3.3,16.7-14.9,21.9H59h1.4c0,0,17.3-1.4,17.3-32.6C77.6,38.4,65.9,33.7,60.8,32.9z"/>
	<path class="st3" d="M68,73.4c1.7-13.5-1.4-22.6-5.7-24.6c-3.4-1.6-5.4,0.2-6,1c0.1,0.1,4,3.8,4,14c0,9.6-4.7,13.5-5.4,14
		c-1.6,1.8-4.3,3-8-0.6c-6.5-6.5-4.3-22-2.7-27.5c1-3.3,2.6-13.9,13.6-17l-7.7,0.2c-5.2,0.9-16.8,5.5-16.8,29.8
		c0,31.2,17.3,32.6,17.3,32.6h1.4h1.2C64.7,90.1,67,81.3,68,73.4z"/>
</g>
</svg>
